X:1
T:Title
%%score { 1 | ( 2 3 ) }
L:1/8
Q:1/4=108
M:9/8
K:Ab
V:1 treble nm="Grand Piano"
V:2 bass 
V:3 bass 
V:1
 [Ec][DB][Ec] [CA]3 [CE]3 | [Ec][DB][Ec] [CA]3 [CE]3 | A2 A c3 [EA]3 | [EB]6 z3 | %4
w: William~J.~Kirkpatrick * * * *||||
 [Ec][DB][Ec] [CA]3 [CE]3 | [Ec][DB][Ec] [CA]3 [CE]3 | [CA]3 [Ec]3 [DB]3 | [CA]6 z3 | %8
w: ||||
 B2 B B2 B dcB | [CA]3 [CE]3 [EA]3 | B2 B B2 B BAB | c6 z3 | [Ec][DB][Ec] [CA]3 [CE]3 | %13
w: |||||
 [Ec][DB][Ec] [CA]3 [CE]3 | [CA]3 [Ec]3 [DB]3 | [CA]6 z3 |] %16
w: |||
V:2
 [A,,A,]2 [A,,A,] [A,,E,]3 [A,,A,]3 | [A,,A,]2 [A,,A,] [A,,E,]3 [A,,A,]3 | %2
 [A,CE]2 [A,CE] [A,E]3 [C,A,]3 | [E,G,]6 z3 | [A,,A,]2 [A,,A,] [A,,E,]3 [A,,A,]3 | %5
 [A,,A,]2 [A,,A,] [A,,E,]3 [A,,A,]3 | [F,A,]3 [E,A,]3 [E,G,]3 | [A,,A,]6 z3 | z3 z3 .B,3 | %9
 [A,,A,]3 [A,,A,]3 [C,A,]3 | z3 z3 .[E,E]3 | [A,E]6 z3 | [A,,A,]2 [A,,A,] [A,,E,]3 [A,,A,]3 | %13
 [A,,A,]2 [A,,A,] [A,,E,]3 [A,,A,]3 | [F,A,]3 [E,A,]3 [E,G,]3 | [A,,A,]6 z3 |] %16
V:3
 x9 | x9 | x9 | x9 | x9 | x9 | x9 | x9 | [E,G,E]2 [E,G,E] [E,G,E]2 [E,G,E] [E,E]-[E,A,E][E,G,D] | %9
 x9 | [E,G,E]2 [E,G,E] [E,G,E]2 [E,G,E] G,F,[E,G,E] | x9 | x9 | x9 | x9 | x9 |] %16

